Origami/16x16/apps/help-browser-symbolic.svg

<svg width="16" height="16" version="1.1" xmlns="http://www.w3.org/2000/svg">
 <path d="m9 15h-2v-2h2zm2.07-7.75-0.9 0.92c-0.72 0.73-1.17 1.33-1.17 2.83h-2v-0.5c0-1.1 0.45-2.1 1.17-2.83l1.24-1.26c0.37-0.36 0.59-0.86 0.59-1.41 0-1.1-0.9-2-2-2s-2 0.9-2 2h-2c0-2.21 1.79-4 4-4s4 1.79 4 4c0 0.88-0.36 1.68-0.93 2.25z" style="fill:#5c5c5c"/>
</svg>

<svg xmlns="http://www.w3.org/2000/svg" width="16" height="16" version="1.1">
 <path style="fill:#5c5c5c" d="M 9,15 H 7 V 13 H 9 Z M 11.07,7.25 10.17,8.17 C 9.45,8.9 9,9.5 9,11 H 7 V 10.5 C 7,9.4 7.45,8.4 8.17,7.67 L 9.41,6.41 C 9.78,6.05 10,5.55 10,5 10,3.9 9.1,3 8,3 6.9,3 6,3.9 6,5 H 4 C 4,2.79 5.79,1 8,1 10.21,1 12,2.79 12,5 12,5.88 11.64,6.68 11.07,7.25 Z"/>
</svg>
